X:27
T:Sheebeg and Sheemore
O:Ireland
M:3/4
C:Turlough O'Carolan
K:D
de|\
f2fe d2|d2de d2|B4A2|F4 A2|\
BABc d2|e4 de|f4 e2|d4 f2|\
B4e2|A4d2|F4E2|D4f2|
B4e2|A4dc|(d6|d4)::\
de|\
f3ed2|ed ega2|b4 a2|f4ed|
e4a2|f4e2|d4B2|B4BA|\
F4E2|D4f2|B4e2|A4a2|ba gf ed|e4 dc|(d6|d4):|
%%topmargin 1.2 in
%%bottommargin 1.0 in
%%titlefont Times-Roman 24
%%composerspace 0
%%partsspace 0
%%writehistory 1
%%scale 0.7
%%maxshrink 1
%
%
